X: 1
T: Rakkauden tuli palaa
M: 3/4
L: 1/8
K: Dm
[| "Dm"D>F A2 A2 | "Dm"F>E D2 D>D | "Dm"AA B2 A2 | "Gm"G2 "A7"A4 \
|: "Dm"d>d c2 A2 | "Gm"B>c d2 "(A7)"AA | "Dm"d>d A2 "(A)"F2 | "A7"E2 "Dm"D4 :|
